<?xml version="1.0" encoding="UTF-8"?>
<map version="1.10" tiledversion="1.11.2" orientation="orthogonal" renderorder="right-down" width="20" height="23" tilewidth="16" tileheight="8" infinite="0" nextlayerid="2" nextobjectid="1">
 <tileset firstgid="1" source="AllPatterns.tsx"/>
 <tileset firstgid="513" source="Menu_tileset.tsx"/>
 <layer id="1" name="Map Layer" width="20" height="23">
  <data encoding="csv">
1,1,1,1,1,1,1,1,1,1,1,1,1,1,1,1,1,1,1,1,
15,31,31,31,31,31,31,31,31,31,31,31,31,31,31,14,1,1,1,1,
7,1,1,1,1,1,1,1,1,1,1,1,1,1,1,6,1,1,1,1,
7,1,1,1,1,1,1,1,1,1,1,1,1,1,1,6,1,1,1,1,
7,1,1,1,1,1,1,1,1,1,1,1,1,1,1,6,1,1,1,1,
7,1,1,1,1,1,1,1,1,1,1,1,1,1,1,10,31,31,31,31,
7,1,27,29,1,1,1,1,1,1,1,1,1,1,1,1,1,1,23,1,
7,1,17,19,1,1,1,1,1,1,1,1,1,1,1,1,1,1,26,29,
7,1,26,28,1,1,1,18,1,1,1,1,1,1,1,1,1,1,3,23,
7,1,24,18,18,18,18,18,29,81,1,1,1,1,1,1,1,1,1,20,
7,1,27,18,18,18,18,18,21,1,1,1,1,1,1,1,1,1,1,23,
7,1,17,19,1,1,1,18,1,1,1,1,1,1,1,1,1,1,1,20,
7,1,26,28,1,1,1,1,1,1,1,1,1,1,1,1,1,1,1,23,
7,1,24,21,1,1,1,1,1,1,1,1,1,1,1,1,1,1,1,20,
7,1,1,1,1,1,1,1,1,1,1,1,1,1,1,1,1,1,1,23,
7,1,1,1,1,1,1,1,1,1,1,1,1,1,1,1,1,1,1,20,
7,1,101,1,1,1,1,1,1,1,1,1,1,1,1,1,1,1,1,23,
7,1,1,1,1,1,1,1,1,1,1,1,1,1,1,1,1,5,1,20,
7,1,93,1,1,1,1,1,1,1,1,1,1,1,1,1,1,94,1,23,
13,30,30,30,30,30,30,30,30,30,30,30,9,39,8,30,16,32,16,30,
1,1,1,1,1,1,1,1,1,1,1,1,13,30,12,1,1,1,1,1,
1,1,1,1,1,1,1,1,1,1,1,1,1,1,1,1,1,1,1,1,
1,1,1,1,1,1,1,1,1,1,1,1,1,1,1,1,1,1,1,1
</data>
 </layer>
</map>
