<?xml version="1.0" encoding="UTF-8"?>
<map version="1.10" tiledversion="1.11.2" orientation="orthogonal" renderorder="right-down" width="20" height="23" tilewidth="16" tileheight="8" infinite="0" nextlayerid="2" nextobjectid="1">
 <tileset firstgid="1" source="AllPatterns.tsx"/>
 <tileset firstgid="513" source="Menu_tileset.tsx"/>
 <layer id="1" name="Map Layer" width="20" height="23">
  <data encoding="csv">
27,18,28,40,6,1,7,40,40,40,40,40,40,46,1,1,1,1,6,1,
25,1,1,1,10,31,11,1,1,1,1,1,1,1,89,34,18,18,6,1,
22,1,1,1,1,1,1,1,18,1,18,1,1,16,16,16,40,40,6,1,
25,5,101,1,97,1,1,1,1,1,1,1,1,1,40,1,1,1,6,1,
22,4,93,1,1,1,1,1,1,1,1,1,1,1,1,1,1,1,6,1,
30,9,18,34,90,1,1,1,1,1,1,1,1,1,1,1,1,1,10,31,
31,11,40,40,1,1,1,1,1,1,1,1,1,1,1,1,1,1,3,41,
42,1,1,1,1,1,1,1,1,1,1,1,1,1,1,1,1,1,1,41,
42,1,1,1,1,16,39,39,16,1,1,16,16,1,1,17,19,1,1,41,
42,1,1,16,16,16,16,16,16,1,1,40,40,1,99,20,22,1,1,41,
42,1,1,1,40,40,40,17,19,1,1,1,1,1,1,23,25,1,1,41,
42,1,1,1,1,1,1,20,22,1,1,1,1,1,1,26,28,1,1,17,
42,1,1,1,96,1,1,23,25,1,1,1,1,1,1,1,40,1,1,20,
42,1,1,1,1,1,1,26,28,39,39,1,1,1,1,1,1,1,1,23,
42,1,1,1,1,1,1,18,18,18,18,1,1,1,1,1,1,1,1,20,
42,48,48,48,1,1,1,3,1,40,40,1,1,1,1,1,1,1,1,23,
18,18,18,18,1,1,1,1,1,1,1,1,1,1,1,1,1,1,1,26,
7,1,1,1,1,96,1,1,1,1,1,1,1,1,1,1,1,1,1,41,
7,5,1,1,1,1,1,1,1,1,1,102,39,1,1,1,1,1,1,41,
7,94,1,1,1,1,1,1,1,1,1,18,18,18,1,1,16,1,1,41,
18,32,18,19,1,1,1,1,1,1,1,1,3,1,1,1,16,1,1,41,
1,1,1,22,1,1,1,1,1,1,1,1,1,1,1,1,16,1,1,41,
1,1,1,25,39,39,39,39,39,39,39,39,39,39,39,39,16,39,39,8
</data>
 </layer>
</map>
