<?xml version="1.0" encoding="UTF-8"?>
<map version="1.10" tiledversion="1.11.2" orientation="orthogonal" renderorder="right-down" width="20" height="23" tilewidth="16" tileheight="8" infinite="0" nextlayerid="2" nextobjectid="1">
 <tileset firstgid="1" source="AllPatterns.tsx"/>
 <layer id="1" name="Map Layer" width="20" height="23">
  <data encoding="csv">
15,31,31,31,31,31,31,31,31,1,1,1,1,1,1,1,1,1,1,1,
7,1,1,1,1,47,1,1,41,1,1,1,1,1,1,1,1,1,1,1,
7,1,1,1,1,47,1,1,41,31,31,31,31,31,31,31,31,31,31,14,
7,1,1,8,30,9,1,1,45,40,40,40,40,40,1,1,1,1,48,6,
7,1,1,6,1,7,1,1,1,1,1,1,1,1,1,1,1,1,48,6,
7,1,1,6,15,11,1,1,1,95,1,1,95,1,1,1,1,1,48,6,
7,1,1,6,7,1,1,1,1,1,1,1,1,1,1,43,44,1,48,6,
7,1,1,6,7,1,1,1,1,1,1,1,1,1,1,41,42,1,48,6,
7,1,1,6,7,1,1,1,1,1,1,1,1,1,1,45,46,1,48,6,
7,1,1,6,7,1,1,1,1,1,1,1,1,1,1,1,1,1,48,6,
34,81,1,6,7,1,101,1,1,1,1,1,1,1,1,1,1,1,48,6,
7,1,1,6,7,1,5,1,1,1,1,1,1,1,1,1,1,1,48,6,
7,1,1,6,7,1,4,1,1,93,1,1,1,1,1,1,1,1,48,6,
7,1,1,6,13,30,30,30,30,30,30,9,30,30,30,30,30,9,48,6,
7,1,1,10,31,31,31,31,31,31,31,31,31,31,31,31,31,11,48,10,
7,1,1,1,1,1,1,1,1,1,1,25,1,1,40,1,40,1,48,41,
7,1,1,1,1,1,1,1,1,1,1,22,102,1,1,1,1,1,48,41,
7,1,1,1,1,1,1,1,1,1,1,24,18,1,1,1,1,1,48,41,
7,1,1,8,9,1,1,1,1,1,1,1,3,1,1,1,1,1,48,41,
42,1,1,41,7,1,1,1,1,1,1,1,1,1,1,1,1,1,48,41,
42,1,1,41,7,1,1,1,1,1,1,1,1,1,1,1,1,5,48,41,
42,1,1,41,7,1,1,8,9,1,1,1,1,1,1,1,1,94,48,41,
30,30,30,30,13,39,39,12,13,39,30,30,30,30,39,30,39,30,30,30
</data>
 </layer>
</map>
