<?xml version="1.0" encoding="UTF-8"?>
<map version="1.10" tiledversion="1.11.2" orientation="orthogonal" renderorder="right-down" width="20" height="23" tilewidth="16" tileheight="8" infinite="0" nextlayerid="2" nextobjectid="1">
 <tileset firstgid="1" source="AllPatterns.tsx"/>
 <tileset firstgid="513" source="Menu_tileset.tsx"/>
 <layer id="1" name="Map Layer" width="20" height="23">
  <data encoding="csv">
45,46,45,46,45,46,40,40,40,40,40,40,40,40,41,42,18,18,18,41,
42,16,16,16,90,1,1,1,1,1,1,1,1,1,41,42,1,1,1,41,
42,47,1,1,1,1,90,1,1,1,1,1,1,1,41,42,1,101,1,41,
42,1,1,1,1,1,1,1,1,1,1,1,1,1,41,42,1,93,1,41,
42,1,1,93,1,1,1,1,1,1,1,1,1,1,41,42,1,16,16,41,
42,1,16,16,16,16,16,16,16,1,1,1,1,1,41,42,1,1,47,41,
42,1,1,1,1,1,84,48,16,1,1,1,1,1,41,42,1,1,1,41,
42,1,1,1,1,1,1,1,16,16,16,16,1,43,41,42,1,1,1,41,
42,82,1,1,1,1,1,1,16,16,16,1,1,45,41,42,48,1,1,41,
42,1,1,1,1,1,1,84,16,5,1,1,1,1,41,42,1,1,1,41,
42,1,1,1,1,16,1,1,16,94,1,1,1,1,41,42,1,1,1,41,
42,1,45,46,45,16,1,1,16,32,1,1,1,1,41,42,1,1,1,41,
42,16,16,16,16,16,1,1,16,48,1,1,1,1,41,42,39,39,1,41,
42,47,47,1,1,1,1,1,16,1,1,1,1,1,41,42,1,1,1,41,
42,1,1,1,1,93,1,1,16,1,1,95,1,1,41,42,1,1,1,41,
42,1,1,16,16,16,16,16,16,102,1,1,1,1,41,42,1,1,1,41,
42,1,45,46,45,46,45,46,45,46,45,46,45,46,45,46,1,1,1,41,
42,1,1,1,1,1,1,1,1,1,1,1,1,1,1,1,1,1,1,41,
42,1,1,1,1,1,1,1,1,1,1,1,1,1,1,1,1,1,1,41,
42,48,1,1,1,1,1,1,1,1,1,1,1,1,1,1,1,1,1,41,
42,16,16,1,1,1,1,1,1,1,1,1,1,1,1,1,1,1,1,41,
42,1,39,1,95,1,1,95,1,1,95,1,1,16,1,1,96,1,1,41,
42,39,39,39,39,39,39,39,39,39,39,39,39,39,39,39,39,39,39,41
</data>
 </layer>
</map>
